X: 128
T:Hot Punch
% Nottingham Music Database
S:Lesley Dolman, via EF
M:6/8
K:D
a/2g/2|"D"f2d "D/f+"dcd|"G"B2d "D/f+"A2d|"D"f2d faf|"D"d3 de"d#"f|"Em"g2e e^de\
|
"Em"c2e "Em/d"e2d|"A7/c+"c2A cec|"A7"A3 a2g|"D"f2d "D/f+"dcd|"G"B2d "D/f+"A2d|\
"D"f2d faf|
"D"d3 dfg|"D"afa "A"geg|"Bm"fdf "Em"e2d|"A7"cec ABc|"D"d3 "A7"a2g|
"D"f2a a^ga|"D"f2a d2a|"D"f2d faf|"D"d3 de"d#"f|"Em"g2b b^ab|
"Em"g2b e2b|"Em"g2e gbg|"A7"e3 a2g|"D"f2a a^ga|"D"f2a d2a|"D"f2d faf|
"D"d3 dfg|"D"afa "A"geg|"Bm"fdf "Em"e2d|"A7"cec ABc|"D"d3 d2||<end>
<start>
